svg/u1f37c.svg

<svg viewBox="0 0 128 128" xmlns="http://www.w3.org/2000/svg">
  <path d="M64.17,30c0,0-7.92-1.56-13.58,1.98S37.71,44.43,32.62,48.96S7.43,60.56,5.02,72.31 s2.34,22.43,12.59,33.25c10.19,10.75,25.05,15.99,34.53,13.16s14.58-16.56,22.5-24.2S88.69,82.21,92.31,74.8 c4.35-8.91,1.73-14.66,1.73-14.66L64.17,30z" fill="#BBCED4"/>
  <path d="M75.07,45.71c-2.12-2.12-6.64-9.94-10.04-10.65c-3.4-0.71-10.81,0.17-16.85,6.12 c-4.92,4.85-10.05,10.47-14.86,14.01s-13.98,8.41-16.7,10.47c-1.98,1.51-6.57,5.04-6.97,12.14c-0.32,5.59,1.7,13.45,11.36,23.8 c9.84,10.55,20.1,12.4,26.22,11.95c8.58-0.62,12.4-8.16,13.97-10.48c1.99-2.93,8.2-11.66,11.46-14.21 c3.25-2.55,11.32-9.55,14.29-15.42C91.31,64.83,89.48,60,89.48,60L75.07,45.71z" fill="#F5F3E7"/>
  <path d="M40.94,58.72c1.27,1.79,4.15,1.95,7.82-1.14c3.66-3.09,7.41-5.94,9.93-7.33 c2.52-1.38,7.74-4.64,4.07-9.12c-3.66-4.48-8.31-0.33-10.42,1.79c-2.12,2.12-4.7,6.21-7.17,9.12C42.89,54.73,39.15,56.2,40.94,58.72 z" fill="#FFFFFF"/>
  <path d="M70.31,20.37c-5.88,4.93-7.61,7.51-7.87,10.06c-0.25,2.55,2.04,10.71,11.05,20.73 s18.1,15.04,21.84,14.45c3.74-0.59,6.18-3.38,9.62-6.89c1.43-1.46,5.64-6.11,5.81-8.41c0.17-2.29-1.49-11.17-10.03-20.95 C90.52,17.65,82.4,15.88,80.29,15.73C76.53,15.46,73.46,17.74,70.31,20.37z" fill="#37B4E5"/>
  <path d="M78.08,20.3c-0.13,4.61,3.56,12.28,10.44,19.77c8.42,9.16,13.6,11.77,17.58,12.69 c2.03,0.47,3.89-0.19,3.81-1.41c-0.08-1.22-1.15-0.66-5.42-2.22c-1.97-0.72-7.33-3.56-13.83-10.89c-6.5-7.34-9.12-12.99-9.51-16.87 c-0.4-3.95,0.73-4.53-0.73-5.06C78.97,15.76,78.16,17.55,78.08,20.3z" fill="#1E88FE"/>
  <path d="M76.4,20.91c0.69,1.44-1.99,3.75-4.28,5.96c-2.76,2.67-4.73,4.56-5.66,3.29 c-0.99-1.38,2.29-3.9,3.9-5.5C72.81,22.21,75.64,19.31,76.4,20.91z" fill="#1E88FE"/>
  <path d="M73.63,34.34c-3.53,3.23-5.14,4.29-3.94,5.59c1.21,1.3,4.18-1.84,5.46-3.06 c1.29-1.23,5.46-4.37,4.42-5.75C78.26,29.38,75.72,32.42,73.63,34.34z" fill="#1E88FE"/>
  <path d="M80.55,43.67c-2.93,2.88-5.62,5.12-4.16,6.41c1.29,1.13,4.32-2.32,6.19-4.16 c1.87-1.84,4.86-4.21,3.67-5.52C84.87,38.87,82.83,41.43,80.55,43.67z" fill="#1E88FE"/>
  <path d="M84.94,57.78c1.33,1.28,3.37-0.96,5.72-3.44c2.16-2.28,5.11-4.22,3.68-5.68 c-1.33-1.36-3.85,1.42-5.88,3.36C86.11,54.27,83.68,56.59,84.94,57.78z" fill="#1E88FE"/>
  <path d="M97.73,57.62c-3.25,3.25-4.68,4.43-3.31,5.49s4.06-2.31,5.93-3.93s3.99-3.49,2.81-4.62 C101.98,53.44,99.92,55.43,97.73,57.62z" fill="#1E88FE"/>
  <path d="M121.48,19.8c2.53-2.45,4.34-7.76,0.33-11.31c-3.39-3.01-8.55-2.09-11.25,1.13 c-2.67,3.2-2.4,5.82-5.37,6.39c-3.2,0.61-6.58-3.17-14.13-1.8c-2.71,0.49-5.23,2.56-7.07,4.54c0.31,1.28-0.18,7.47,8.52,17.44 c7.52,8.62,14.97,11.2,16.95,10.76c2.04-1.89,4.54-4.91,5.25-8.73c1.54-8.27-2.49-11-1.15-13.27C115.31,21.97,118.18,23,121.48,19.8 z" fill="#FFA828"/>
  <path d="M111.5,14.71c1.31,1.73,3.29,0.39,4.82-1.25c1.23-1.33,2.92-2.76,2.02-3.84 c-1.28-1.54-3.51-0.87-4.89,0.19C112.06,10.87,110.53,13.43,111.5,14.71z" fill="#FFCC8A"/>
  <path d="M90.22,19.25c-0.54,2.81,3.33,3.26,4.93,3.46c1.6,0.2,5.25,0.34,5.39-2.2 c0.13-2.33-2.54-3.33-4.86-3.59C93.35,16.66,90.62,17.19,90.22,19.25z" fill="#FFCC8A"/>
</svg>

<svg viewBox="0 0 128 128" xmlns="http://www.w3.org/2000/svg">
  <defs/>
  <path d="M64.17,30 C64.17,30 56.25,28.44 50.59,31.98 C44.93,35.52 37.71,44.43 32.62,48.96 C27.53,53.49 7.43,60.56 5.02,72.31 C2.61,84.06 7.36,94.74 17.61,105.56 C27.8,116.31 42.66,121.55 52.14,118.72 C61.62,115.89 66.72,102.16 74.64,94.52 C82.56,86.88 88.69,82.21 92.31,74.8 C96.66,65.89 94.04,60.14 94.04,60.14 L64.17,30 Z" fill="#BBCED4"/>
  <path d="M75.07,45.71 C72.95,43.59 68.43,35.77 65.03,35.06 C61.63,34.35 54.22,35.23 48.18,41.18 C43.26,46.03 38.13,51.65 33.32,55.19 C28.51,58.73 19.34,63.6 16.62,65.66 C14.64,67.17 10.05,70.7 9.65,77.8 C9.33,83.39 11.35,91.25 21.01,101.6 C30.85,112.15 41.11,114 47.23,113.55 C55.81,112.93 59.63,105.39 61.2,103.07 C63.19,100.14 69.4,91.41 72.66,88.86 C75.91,86.31 83.98,79.31 86.95,73.44 C91.31,64.83 89.48,60 89.48,60 L75.07,45.71 Z" fill="#F5F3E7"/>
  <path d="M40.94,58.72 C42.21,60.51 45.09,60.67 48.76,57.58 C52.42,54.49 56.17,51.64 58.69,50.25 C61.21,48.87 66.43,45.61 62.76,41.13 C59.1,36.65 54.45,40.8 52.34,42.92 C50.22,45.04 47.64,49.13 45.17,52.04 C42.89,54.73 39.15,56.2 40.94,58.72 Z" fill="#FFFFFF"/>
  <path d="M70.31,20.37 C64.43,25.3 62.7,27.88 62.44,30.43 C62.19,32.98 64.48,41.14 73.49,51.16 C82.5,61.18 91.59,66.2 95.33,65.61 C99.07,65.02 101.51,62.23 104.95,58.72 C106.38,57.26 110.59,52.61 110.76,50.31 C110.93,48.02 109.27,39.14 100.73,29.36 C90.52,17.65 82.4,15.88 80.29,15.73 C76.53,15.46 73.46,17.74 70.31,20.37 Z" fill="#37B4E5"/>
  <path d="M78.08,20.3 C77.95,24.91 81.64,32.58 88.52,40.07 C96.94,49.23 102.12,51.84 106.1,52.76 C108.13,53.23 109.99,52.57 109.91,51.35 C109.83,50.13 108.76,50.69 104.49,49.13 C102.52,48.41 97.16,45.57 90.66,38.24 C84.16,30.9 81.54,25.25 81.15,21.37 C80.75,17.42 81.88,16.84 80.42,16.31 C78.97,15.76 78.16,17.55 78.08,20.3 Z" fill="#1E88FE"/>
  <path d="M76.4,20.91 C77.09,22.35 74.41,24.66 72.12,26.87 C69.36,29.54 67.39,31.43 66.46,30.16 C65.47,28.78 68.75,26.26 70.36,24.66 C72.81,22.21 75.64,19.31 76.4,20.91 Z" fill="#1E88FE"/>
  <path d="M73.63,34.34 C70.1,37.57 68.49,38.63 69.69,39.93 C70.9,41.23 73.87,38.09 75.15,36.87 C76.44,35.64 80.61,32.5 79.57,31.12 C78.26,29.38 75.72,32.42 73.63,34.34 Z" fill="#1E88FE"/>
  <path d="M80.55,43.67 C77.62,46.55 74.93,48.79 76.39,50.08 C77.68,51.21 80.71,47.76 82.58,45.92 C84.45,44.08 87.44,41.71 86.25,40.4 C84.87,38.87 82.83,41.43 80.55,43.67 Z" fill="#1E88FE"/>
  <path d="M84.94,57.78 C86.27,59.06 88.31,56.82 90.66,54.34 C92.82,52.06 95.77,50.12 94.34,48.66 C93.01,47.3 90.49,50.08 88.46,52.02 C86.11,54.27 83.68,56.59 84.94,57.78 Z" fill="#1E88FE"/>
  <path d="M97.73,57.62 C94.48,60.87 93.05,62.05 94.42,63.11 C95.79,64.17 98.48,60.8 100.35,59.18 C102.22,57.56 104.34,55.69 103.16,54.56 C101.98,53.44 99.92,55.43 97.73,57.62 Z" fill="#1E88FE"/>
  <path d="M121.48,19.8 C124.01,17.35 125.82,12.04 121.81,8.49 C118.42,5.48 113.26,6.4 110.56,9.62 C107.89,12.82 108.16,15.44 105.19,16.01 C101.99,16.62 98.61,12.84 91.06,14.21 C88.35,14.7 85.83,16.77 83.99,18.75 C84.3,20.03 83.81,26.22 92.51,36.19 C100.03,44.81 107.48,47.39 109.46,46.95 C111.5,45.06 114,42.04 114.71,38.22 C116.25,29.95 112.22,27.22 113.56,24.95 C115.31,21.97 118.18,23 121.48,19.8 Z" fill="#FFA828"/>
  <path d="M111.5,14.71 C112.81,16.44 114.79,15.1 116.32,13.46 C117.55,12.13 119.24,10.7 118.34,9.62 C117.06,8.08 114.83,8.75 113.45,9.81 C112.06,10.87 110.53,13.43 111.5,14.71 Z" fill="#FFCC8A"/>
  <path d="M90.22,19.25 C89.68,22.06 93.55,22.51 95.15,22.71 C96.75,22.91 100.4,23.05 100.54,20.51 C100.67,18.18 98,17.18 95.68,16.92 C93.35,16.66 90.62,17.19 90.22,19.25 Z" fill="#FFCC8A"/>
</svg>
